svelte-logo-cutout.svg

<svg xmlns="http://www.w3.org/2000/svg" width="100%" height="100%" viewBox="0 0 94 112">
	<title>svelte-logo-cutout</title>
	<path
		d="M87.253,14.819C76.853,-0.066 56.313,-4.478 41.462,4.984L15.379,21.608C8.258,26.088 3.346,33.37 1.86,41.651C0.617,48.551 1.71,55.673 4.968,61.882C2.736,65.269 1.213,69.074 0.492,73.065C-1.009,81.506 0.956,90.205 5.939,97.181C16.341,112.067 36.881,116.478 51.731,107.016L77.813,90.392C84.935,85.913 89.847,78.63 91.332,70.349C92.576,63.449 91.483,56.327 88.227,50.117C90.459,46.73 91.981,42.926 92.701,38.935C94.202,30.494 92.237,21.795 87.254,14.819"
		style="fill:#ff3e00;" />
	<path
		d="M38.914,98.581C30.526,100.762 21.616,97.46 16.677,90.339C13.679,86.144 12.498,80.912 13.4,75.836C13.551,75.011 13.76,74.197 14.023,73.401L14.514,71.903L15.851,72.884C18.937,75.152 22.387,76.876 26.054,77.982L27.023,78.276L26.934,79.244C26.815,80.62 27.188,81.994 27.986,83.122C29.473,85.267 32.155,86.263 34.681,85.607C35.248,85.455 35.788,85.218 36.283,84.903L62.367,68.281C63.656,67.469 64.546,66.15 64.817,64.65C65.087,63.12 64.731,61.544 63.83,60.279C62.342,58.133 59.659,57.137 57.132,57.792C56.566,57.944 56.026,58.181 55.532,58.496L45.579,64.841C43.942,65.882 42.156,66.666 40.282,67.167C31.894,69.348 22.985,66.045 18.045,58.924C15.048,54.729 13.866,49.498 14.769,44.422C15.662,39.442 18.616,35.063 22.899,32.37L48.98,15.747C50.617,14.705 52.405,13.919 54.28,13.418C62.668,11.238 71.577,14.54 76.517,21.661C79.514,25.856 80.696,31.088 79.793,36.164C79.641,36.989 79.433,37.803 79.17,38.599L78.679,40.097L77.343,39.117C74.257,36.848 70.806,35.123 67.139,34.017L66.17,33.723L66.259,32.755C66.377,31.379 66.004,30.005 65.207,28.877C63.721,26.732 61.038,25.737 58.512,26.392C57.945,26.544 57.405,26.781 56.91,27.096L30.827,43.719C29.537,44.531 28.647,45.849 28.378,47.349C28.106,48.879 28.461,50.456 29.363,51.721C30.851,53.866 33.534,54.862 36.061,54.207C36.628,54.055 37.168,53.818 37.663,53.503L47.615,47.16C49.251,46.118 51.037,45.333 52.911,44.833C61.299,42.652 70.208,45.954 75.148,53.075C78.145,57.27 79.327,62.502 78.424,67.578C77.531,72.558 74.577,76.937 70.294,79.631L44.213,96.253C42.576,97.295 40.788,98.08 38.913,98.581"
		style="fill:#fff;" />
</svg>

<?xml version="1.0" encoding="utf-8"?>
<!-- Generator: Adobe Illustrator 27.8.1, SVG Export Plug-In . SVG Version: 6.00 Build 0)  -->
<svg version="1.1" id="Layer_1" xmlns="http://www.w3.org/2000/svg" xmlns:xlink="http://www.w3.org/1999/xlink" x="0px"
	y="0px" viewBox="0 0 93.2 112" style="enable-background:new 0 0 93.2 112;" xml:space="preserve">
	<title>svelte-logo-cutout</title>
	<style type="text/css">
		.st0 {
			fill: #FF3E00;
		}
	</style>
	<path class="st0" d="M87.3,14.8L87.3,14.8C76.9-0.1,56.3-4.5,41.5,5L15.4,21.6c-7.1,4.5-12,11.8-13.5,20c-1.2,6.9-0.2,14,3.1,20.2
	c-2.2,3.4-3.8,7.2-4.5,11.2C-1,81.5,1,90.2,5.9,97.2c10.4,14.9,30.9,19.3,45.8,9.8l26.1-16.6c7.1-4.5,12-11.8,13.5-20
	c1.2-6.9,0.2-14-3.1-20.2c2.2-3.4,3.8-7.2,4.5-11.2C94.2,30.5,92.2,21.8,87.3,14.8z M79.8,36.2c-0.2,0.8-0.4,1.6-0.6,2.4l-0.5,1.5
	l-1.3-1c-3.1-2.3-6.5-4-10.2-5.1l-1-0.3l0.1-1c0.1-1.4-0.3-2.7-1.1-3.9c-1.5-2.2-4.2-3.1-6.7-2.5c-0.6,0.2-1.1,0.4-1.6,0.7
	L30.8,43.7c-1.3,0.8-2.2,2.1-2.4,3.6c-0.3,1.5,0.1,3.1,1,4.4c1.5,2.2,4.2,3.1,6.7,2.5c0.6-0.2,1.1-0.4,1.6-0.7l10-6.3
	c1.6-1,3.4-1.8,5.3-2.3c8.4-2.2,17.3,1.1,22.2,8.2c3,4.2,4.2,9.4,3.3,14.5c-0.9,5-3.8,9.4-8.1,12.1L44.2,96.3
	c-1.6,1-3.4,1.8-5.3,2.3h0c-8.4,2.2-17.3-1.1-22.2-8.2c-3-4.2-4.2-9.4-3.3-14.5c0.2-0.8,0.4-1.6,0.6-2.4l0.5-1.5l1.3,1
	c3.1,2.3,6.5,4,10.2,5.1l1,0.3l-0.1,1c-0.1,1.4,0.3,2.8,1.1,3.9c1.5,2.2,4.2,3.1,6.7,2.5c0.6-0.2,1.1-0.4,1.6-0.7l26.1-16.6
	c1.3-0.8,2.2-2.1,2.5-3.6c0.3-1.5-0.1-3.1-1-4.4c-1.5-2.2-4.2-3.1-6.7-2.5c-0.6,0.2-1.1,0.4-1.6,0.7l-10,6.3c-1.6,1-3.4,1.8-5.3,2.3
	C31.9,69.4,23,66.1,18,58.9c-3-4.2-4.2-9.4-3.3-14.5c0.9-5,3.8-9.4,8.1-12.1L49,15.7c1.6-1,3.4-1.8,5.3-2.3
	c8.4-2.2,17.3,1.1,22.2,8.2C79.5,25.9,80.7,31.1,79.8,36.2z" />
</svg>
